src/assets/images/tokens/AVAX.svg

<svg width="1503" height="1504" viewBox="0 0 1503 1504" fill="none" xmlns="http://www.w3.org/2000/svg">
<rect x="287" y="258" width="928" height="844" fill="white"/>
<path fill-rule="evenodd" clip-rule="evenodd" d="M1502.5 752C1502.5 1166.77 1166.27 1503 751.5 1503C336.734 1503 0.5 1166.77 0.5 752C0.5 337.234 336.734 1 751.5 1C1166.27 1 1502.5 337.234 1502.5 752ZM538.688 1050.86H392.94C362.314 1050.86 347.186 1050.86 337.962 1044.96C327.999 1038.5 321.911 1027.8 321.173 1015.99C320.619 1005.11 328.184 991.822 343.312 965.255L703.182 330.935C718.495 303.999 726.243 290.531 736.021 285.55C746.537 280.2 759.083 280.2 769.599 285.55C779.377 290.531 787.126 303.999 802.438 330.935L876.42 460.079L876.797 460.738C893.336 489.635 901.723 504.289 905.385 519.669C909.443 536.458 909.443 554.169 905.385 570.958C901.695 586.455 893.393 601.215 876.604 630.549L687.573 964.702L687.084 965.558C670.436 994.693 661.999 1009.46 650.306 1020.6C637.576 1032.78 622.263 1041.63 605.474 1046.62C590.161 1050.86 573.004 1050.86 538.688 1050.86ZM906.75 1050.86H1115.59C1146.4 1050.86 1161.9 1050.86 1171.13 1044.78C1181.09 1038.32 1187.36 1027.43 1187.92 1015.63C1188.45 1005.1 1181.05 992.33 1166.55 967.307C1166.05 966.455 1165.55 965.588 1165.04 964.706L1060.43 785.75L1059.24 783.735C1044.54 758.877 1037.12 746.324 1027.59 741.472C1017.08 736.121 1004.71 736.121 994.199 741.472C984.605 746.453 976.857 759.552 961.544 785.934L857.306 964.891L856.949 965.507C841.69 991.847 834.064 1005.01 834.614 1015.81C835.352 1027.62 841.44 1038.5 851.402 1044.96C860.443 1050.86 875.94 1050.86 906.75 1050.86Z" fill="#E84142"/>
</svg>

<svg xmlns="http://www.w3.org/2000/svg" width="1503" height="1504" fill="none" viewBox="0 0 1503 1504"><path fill="#fff" d="M287 258h928v844H287z"/><path fill="#e84142" fill-rule="evenodd" d="M1502.5 752a751 751 0 1 1-1502 0 751 751 0 0 1 1502 0m-963.8 298.9H392.9c-30.6 0-45.7 0-55-6a37 37 0 0 1-16.7-29c-.6-10.8 7-24 22.1-50.6l359.9-634.4c15.3-26.9 23-40.4 32.8-45.3 10.5-5.4 23-5.4 33.6 0 9.8 5 17.5 18.4 32.8 45.3l74 129.2.4.6c16.5 29 25 43.6 28.6 59 4 16.8 4 34.5 0 51.3-3.7 15.5-12 30.2-28.8 59.5l-189 334.2-.5.9c-16.7 29-25.1 43.9-36.8 55a110 110 0 0 1-44.8 26c-15.3 4.3-32.5 4.3-66.8 4.3m368 0h208.9c30.8 0 46.3 0 55.5-6.1a37 37 0 0 0 16.8-29.2c.5-10.5-6.9-23.3-21.4-48.3l-1.5-2.6-104.6-179-1.2-2c-14.7-24.8-22-37.4-31.6-42.2a37 37 0 0 0-33.4 0c-9.6 5-17.3 18-32.7 44.4L857.3 965l-.4.6c-15.2 26.3-22.8 39.5-22.3 50.3a37 37 0 0 0 16.8 29.2c9 5.9 24.5 5.9 55.4 5.9" clip-rule="evenodd"/></svg>
